X:1
T:Title
%%score { 1 | ( 2 3 ) }
L:1/8
M:3/4
K:Bb
V:1 treble nm="Grand Piano"
V:2 bass 
V:3 bass 
V:1
 z2 z2[Q:1/4=100] [DF][DB] | [EB]2 [EA]2 cA | G2 F2 [DB][Fd] | [Ec][Ge] [Fd]2 [Ec]2 | %4
[M:2/4] [DB]4 |[M:1/4] [Fd][Fd] |[M:3/4] [^Fd]2 [FA]2 [GB][Ac] | [Ac]2 [GB]2 [GB][GB] | %8
 [GB]2 [=EG]2 [Ac][GB] |[M:2/4] [GB]2 A2 |[M:1/4] GF |[M:3/4] [DB]3 B cd | e4 GG | FB B2 A2 | %14
 [DB]6 |] %15
V:2
 z2 z2 [B,,F,][B,,F,] | [C,F,]2 [C,F,]2 [F,A,E][F,CE] | B,2 z2 z2 | [F,A,][F,A,] [F,A,]2 [F,A,]2 | %4
[M:2/4] [B,,B,]4 |[M:1/4] [B,,B,][B,,B,] |[M:3/4] [D,A,]2 [D,D]2 [D,D][D,D] | [G,D]4 [F,_D][F,D] | %8
 [=E,C]2 [C,C]2 [C,C][C,C] |[M:2/4] z2 F2 |[M:1/4] [F,B,E][F,A,E] | %11
[M:3/4] [B,,B,]3[K:treble] [B,DF] [A,CF][_A,B,F] | [G,B,E]4 [E,B,C][=E,B,_D] | %13
 [F,B,D][F,B,D] [F,DF]2 [F,CE]2 | [B,,B,]6 |] %15
V:3
 x6 | x6 | [F,E]2- [F,A,E]2 [B,,B,][B,,B,] | x6 |[M:2/4] x4 |[M:1/4] x2 |[M:3/4] x6 | x6 | x6 | %9
[M:2/4] [F,C]4 |[M:1/4] x2 |[M:3/4] x3[K:treble] x3 | x6 | x6 | x6 |] %15

